app/src/main/assets/lut_presets/低对比.cube
LUT_3D_SIZE 16
-0.005788 -0.010324 0.002670
-0.020448 -0.003735 0.001939
-0.017199 0.004703 -0.002228
0.114141 -0.002466 0.005409
0.212894 -0.005738 0.006393
0.308890 0.003121 0.008755
0.432257 0.010665 0.012193
0.569305 0.017948 0.016625
0.699330 0.024397 0.021068
0.830855 0.031437 0.026014
0.895348 0.036246 0.029683
0.908794 0.034242 0.028767
0.925715 0.037929 0.031223
0.934554 0.034350 0.028987
0.945323 0.038178 0.031540
0.957661 0.038550 0.031869
0.001192 -0.020947 -0.003600
-0.020301 -0.030535 -0.001535
-0.033920 -0.020233 -0.015074
0.094727 -0.010696 0.004622
0.195985 0.015795 0.004800
0.291533 0.024361 0.007267
0.414656 0.032793 0.011599
0.552069 0.042484 0.016009
0.687763 0.050839 0.020653
0.819705 0.058016 0.025583
0.893330 0.062310 0.030243
0.905606 0.063769 0.029295
0.924670 0.062214 0.029670
0.933323 0.064571 0.031343
0.944997 0.064024 0.031305
0.957593 0.064774 0.031846
0.003543 0.054620 0.008096
-0.008172 0.042191 -0.005312
-0.033687 -0.035713 0.002874
0.069576 0.006602 0.003195
0.168685 0.022699 0.003942
0.269775 0.026386 0.006601
0.385977 0.038623 0.010605
0.525117 0.046838 0.015117
0.668164 0.056508 0.019924
0.800093 0.065663 0.024914
0.892838 0.070290 0.027688
0.908424 0.074977 0.030492
0.923110 0.076047 0.030735
0.934809 0.077598 0.031216
0.944719 0.077642 0.031215
0.957684 0.078477 0.031813
-0.003010 0.120458 0.015637
0.010144 0.113165 -0.006602
-0.014616 0.079179 0.003246
0.028638 0.066271 -0.000910
0.135975 0.086321 0.002649
0.233866 0.094215 0.005830
0.341268 0.092403 0.008752
0.478745 0.078784 0.013271
0.634713 0.080694 0.018592
0.778847 0.093929 0.024014
0.892779 0.102004 0.029175
0.909540 0.096966 0.030039
0.921725 0.095438 0.030661
0.933010 0.091609 0.029895
0.943688 0.090220 0.031178
0.957407 0.090641 0.031749
0.003899 0.197214 0.026563
0.013571 0.193048 -0.009928
0.018142 0.181558 0.003178
0.031268 0.159986 0.002676
0.105504 0.139827 0.003352
0.205793 0.156133 0.003133
0.308385 0.173115 0.007253
0.421168 0.182828 0.010620
0.577425 0.184049 0.015814
0.731763 0.158877 0.021611
0.877012 0.131340 0.027785
0.915442 0.122102 0.030454
0.924643 0.118554 0.029470
0.935530 0.118899 0.031123
0.945257 0.118919 0.031149
0.957515 0.120768 0.031691
0.007654 0.271627 0.032618
-0.006466 0.269446 0.008704
0.027021 0.263353 0.004999
0.051613 0.243311 0.006578
0.064349 0.236273 0.005995
0.187382 0.220834 0.006854
0.288134 0.231456 0.006328
0.401050 0.250279 0.009869
0.530557 0.265985 0.013767
0.684081 0.276751 0.019029
0.843929 0.267317 0.025130
0.917058 0.246604 0.027860
0.922032 0.225407 0.030473
0.937854 0.216487 0.030439
0.946992 0.203386 0.030849
0.956339 0.202451 0.031169
0.010758 0.355375 0.042282
0.010792 0.356248 0.031698
0.020369 0.355124 -0.011804
0.051857 0.340083 0.006249
0.079266 0.330995 0.007911
0.128010 0.320355 0.007644
0.267349 0.304895 0.007401
0.373780 0.312002 0.008746
0.507831 0.334871 0.012974
0.648639 0.352266 0.017351
0.809588 0.357930 0.023013
0.916473 0.355293 0.029170
0.926682 0.345585 0.029383
0.938524 0.342035 0.029151
0.946501 0.337380 0.029826
0.954187 0.338563 0.030110
0.013903 0.448844 0.047213
0.016321 0.447553 0.041124
0.009553 0.442289 0.026954
0.032775 0.436257 -0.012634
0.093367 0.429886 0.010079
0.098579 0.417001 0.008216
0.230694 0.408278 0.010995
0.353444 0.396955 0.009911
0.472655 0.400211 0.011562
0.620978 0.428657 0.016340
0.765955 0.440962 0.022323
0.904148 0.443932 0.026315
0.927212 0.435160 0.028669
0.937209 0.433615 0.030924
0.946311 0.430307 0.029205
0.952435 0.432106 0.029416
0.017603 0.552697 0.072599
0.020627 0.551700 0.062508
0.021140 0.549509 0.051723
-0.022339 0.544764 0.037395
0.059215 0.539377 -0.015349
0.124717 0.528261 -0.011735
0.148278 0.503582 0.013329
0.342609 0.494169 0.013260
0.454506 0.483680 0.012462
0.587255 0.496121 0.015269
0.741329 0.520324 0.018229
0.889096 0.526830 0.027924
0.937316 0.514266 0.029512
0.936351 0.508833 0.026431
0.944958 0.507310 0.028741
0.951718 0.509750 0.028924
0.021279 0.649697 0.104430
0.024304 0.648636 0.096934
0.025908 0.648659 0.090362
0.029984 0.645578 0.081386
-0.039857 0.637812 0.064464
0.121291 0.641994 -0.024453
0.145876 0.623537 0.008910
0.268566 0.598670 0.014887
0.439934 0.587454 0.015965
0.551175 0.580774 0.015724
0.698274 0.595354 0.015382
0.858438 0.608122 0.021396
0.940310 0.602140 0.029454
0.937046 0.595769 0.030140
0.943021 0.588846 0.028375
0.950304 0.588596 0.028602
0.024823 0.736527 0.124325
0.027939 0.734289 0.118989
0.031360 0.731564 0.113919
0.032241 0.727645 0.105593
0.025272 0.724022 0.102265
-0.053494 0.727135 0.043921
0.149296 0.734531 0.017412
0.160001 0.713226 0.014771
0.383888 0.688092 0.015931
0.538096 0.677653 0.018750
0.660821 0.675408 0.018819
0.818052 0.689499 0.021283
0.932317 0.678945 0.028021
0.931766 0.671320 0.024462
0.939518 0.665973 0.027726
0.946772 0.665048 0.027663
0.028959 0.823179 0.144242
0.032196 0.821863 0.139894
0.030943 0.818673 0.133677
0.036497 0.816902 0.130225
0.039426 0.810176 0.124829
0.031195 0.802095 0.121812
-0.039975 0.808660 -0.010533
0.165415 0.819636 0.034664
0.252177 0.799593 0.018947
0.506746 0.773069 0.008194
0.643284 0.764535 0.018353
0.765395 0.763403 0.023402
0.906142 0.756124 0.026748
0.929576 0.746587 0.028941
0.935685 0.742746 0.026612
0.948283 0.742854 0.029813
0.032116 0.881964 0.168517
0.035509 0.882352 0.164136
0.038704 0.880737 0.160370
0.044054 0.882896 0.158117
0.041727 0.881431 0.151543
0.042108 0.880930 0.151898
0.041137 0.879053 0.132006
0.088666 0.886221 0.055422
0.114447 0.896114 0.059965
0.415020 0.883610 0.046781
0.597297 0.864145 0.033647
0.724614 0.852595 0.027768
0.861864 0.842823 0.031529
0.937533 0.836656 0.038245
0.942167 0.832264 0.038335
0.957216 0.832357 0.040730
0.032586 0.889356 0.172000
0.036179 0.890433 0.167576
0.034282 0.891759 0.164086
0.042141 0.890919 0.159683
0.047042 0.894088 0.156097
0.046413 0.892530 0.154164
0.050615 0.896097 0.151622
0.053588 0.902071 0.095283
0.106577 0.909044 0.069367
0.293255 0.914320 0.068675
0.540479 0.910378 0.063675
0.677536 0.908620 0.051965
0.808596 0.907053 0.056050
0.919446 0.904145 0.049976
0.922376 0.901320 0.051861
0.937908 0.901780 0.052385
0.032966 0.896767 0.176612
0.036951 0.897356 0.172900
0.037579 0.898370 0.168414
0.049638 0.898844 0.163944
0.056433 0.899127 0.161765
0.063654 0.900542 0.158495
0.071941 0.900800 0.158286
0.089782 0.904795 0.117141
0.127799 0.910208 0.064215
0.230487 0.914163 0.068689
0.518592 0.909624 0.062516
0.656989 0.909132 0.056551
0.789524 0.905413 0.047918
0.904476 0.906775 0.052942
0.921506 0.903172 0.059242
0.933663 0.902656 0.058422
0.037770 0.981334 0.198039
0.039935 0.982087 0.194755
-0.012761 0.983958 0.191443
-0.058910 0.983294 0.190691
-0.110475 0.983987 0.188009
-0.165640 0.984597 0.184525
-0.226997 0.984854 0.183385
-0.285626 0.988440 0.154154
-0.338022 0.992266 0.113380
-0.353458 0.996240 0.101735
0.352762 0.993452 0.051770
0.563787 0.993160 0.048968
0.743121 0.991668 0.026722
0.871925 0.990134 0.037203
0.894637 0.987305 0.047303
0.906864 0.985588 0.052697
-0.024172 -0.464427 -0.095217
-0.028221 -0.464848 -0.097016
0.035813 -0.465334 -0.105790
0.134464 -0.465562 -0.126687
0.239964 -0.465729 -0.126559
0.343856 -0.465954 -0.100103
0.480746 -0.466514 0.067857
0.629600 -0.467923 0.133886
0.766664 -0.469675 0.158849
0.892256 -0.470465 0.160780
0.947539 -0.470026 0.152808
0.948638 -0.469151 0.151066
0.950173 -0.468413 0.148675
0.946083 -0.467048 0.148237
0.951090 -0.465763 0.144893
0.963636 -0.464814 0.140452
-0.014121 0.117770 0.027385
-0.022807 0.117787 0.028487
-0.033140 0.118516 0.029815
0.096145 0.119191 0.038265
0.200619 0.119441 0.038757
0.296482 0.119530 0.026953
0.417010 0.120082 -0.030281
0.552397 0.121270 -0.046320
0.687796 0.122692 -0.052656
0.819128 0.124121 -0.051977
0.895317 0.124953 -0.048249
0.909015 0.125058 -0.045615
0.924702 0.125233 -0.043489
0.934837 0.124129 -0.044249
0.947348 0.124213 -0.041911
0.959613 0.124101 -0.040120
0.007061 0.046755 0.014330
-0.016403 0.044510 -0.006994
-0.034769 -0.033694 -0.005204
0.072104 -0.016200 0.004457
0.172988 0.014932 0.007201
0.272328 0.018465 0.010316
0.390737 0.031630 0.013751
0.528890 0.036361 0.018454
0.670752 0.045088 0.023397
0.801397 0.053426 0.028385
0.895206 0.060136 0.032712
0.907571 0.062193 0.034127
0.926686 0.065218 0.033038
0.935220 0.066055 0.034928
0.946877 0.066482 0.034938
0.959450 0.067444 0.035462
0.004228 0.113468 0.023989
-0.002259 0.111709 0.018384
-0.019526 0.079237 -0.008920
0.028137 0.064370 0.001383
0.143716 0.085644 0.004363
0.239700 0.093076 0.006692
0.346379 0.083962 0.011690
0.484619 0.068033 0.016519
0.640326 0.074799 0.022052
0.782292 0.088033 0.027614
0.897783 0.093248 0.031867
0.912532 0.087650 0.032698
0.923721 0.085926 0.034426
0.934515 0.084066 0.033384
0.945632 0.080299 0.034705
0.959105 0.080999 0.035318
0.005476 0.192288 0.031792
0.007440 0.191890 0.030233
-0.022671 0.182060 0.008818
0.024259 0.160378 0.003416
0.104275 0.143139 0.004933
0.208523 0.156790 0.006557
0.312019 0.171855 0.009641
0.427252 0.181023 0.013370
0.583076 0.178603 0.018968
0.737196 0.149729 0.025267
0.879621 0.125473 0.030107
0.918583 0.115031 0.034371
0.926195 0.109541 0.031632
0.938734 0.114425 0.035893
0.947129 0.112640 0.034603
0.959384 0.114669 0.035202
0.007706 0.267143 0.038558
0.010794 0.266406 0.034439
-0.018548 0.262503 0.015279
0.048784 0.245536 -0.006124
0.056820 0.235722 0.008134
0.187723 0.221895 0.003650
0.288985 0.232137 0.008186
0.404733 0.250610 0.012153
0.535860 0.266218 0.016434
0.689053 0.275797 0.021930
0.848236 0.265275 0.028883
0.919841 0.243474 0.032152
0.926429 0.223691 0.033854
0.940126 0.212519 0.033729
0.948801 0.199928 0.034187
0.957880 0.199135 0.034571
0.010514 0.351946 0.047344
0.013532 0.352883 0.042254
-0.009490 0.353643 0.032420
0.036072 0.344444 -0.014696
0.076483 0.334346 0.005382
0.124699 0.322182 0.010863
0.268477 0.304899 0.008987
0.377563 0.313467 0.010606
0.514272 0.335821 0.015408
0.655648 0.352777 0.019841
0.817018 0.358508 0.028638
0.919492 0.354038 0.033165
0.928008 0.345079 0.031364
0.939571 0.341539 0.033688
0.948106 0.335130 0.032981
0.955502 0.336670 0.033243
0.013801 0.446438 0.061060
0.016490 0.445275 0.056014
0.017676 0.441474 0.051026
-0.028220 0.436704 0.034761
0.083552 0.435197 -0.015601
0.097017 0.424194 0.007937
0.227139 0.410257 0.012303
0.355058 0.398536 0.011545
0.477779 0.402292 0.013586
0.626846 0.430524 0.018549
0.772301 0.442793 0.024952
0.905012 0.442673 0.029884
0.930236 0.433550 0.029126
0.939918 0.433908 0.032760
0.947234 0.429072 0.032103
0.953696 0.431252 0.032323
0.017538 0.551353 0.090647
0.020416 0.550350 0.083335
0.025069 0.546176 0.075528
0.015548 0.540987 0.067548
-0.046773 0.538192 0.015807
0.119473 0.534182 -0.008691
0.140137 0.508293 0.015737
0.340957 0.497270 0.014955
0.457692 0.485728 0.014091
0.592636 0.498682 0.017013
0.744704 0.522930 0.021567
0.890142 0.526035 0.032119
0.935686 0.514720 0.032298
0.939012 0.511621 0.030721
0.945692 0.507272 0.031541
0.952431 0.509259 0.031683
0.021224 0.648929 0.121333
0.024382 0.647636 0.115434
0.023075 0.647924 0.108655
0.030129 0.642975 0.103104
-0.024724 0.634746 0.093709
0.093375 0.641284 -0.034831
0.140216 0.629817 -0.004897
0.262623 0.603704 0.019499
0.445392 0.589884 0.017285
0.555621 0.583193 0.016967
0.699679 0.596809 0.022807
0.860418 0.609641 0.025035
0.939344 0.600359 0.031938
0.937174 0.592111 0.029926
0.944003 0.586546 0.030649
0.951808 0.586509 0.030765
0.024819 0.736169 0.140440
0.027989 0.733618 0.136243
0.031585 0.731404 0.131241
0.032503 0.729321 0.125583
0.027170 0.722637 0.121707
-0.038303 0.723248 0.089215
0.125336 0.735114 -0.019159
0.150909 0.718301 0.012547
0.382746 0.691278 0.017896
0.540350 0.679346 0.018967
0.661477 0.678059 0.020008
0.815147 0.687158 0.024033
0.933083 0.677447 0.028605
0.934615 0.670934 0.031625
0.940798 0.665630 0.030605
0.948832 0.664748 0.031394
0.028943 0.822970 0.160525
0.032163 0.821082 0.156693
0.030983 0.818675 0.151231
0.036478 0.814775 0.146563
0.039493 0.811037 0.143052
0.020780 0.801970 0.139828
-0.028741 0.807241 0.089210
0.135687 0.818371 0.040630
0.239641 0.803437 0.030141
0.507955 0.776821 0.015736
0.642431 0.764776 0.019139
0.765919 0.763871 0.020957
0.909623 0.759145 0.031543
0.934035 0.748970 0.037242
0.939884 0.745542 0.036489
0.952457 0.745737 0.040234
0.032138 0.882001 0.183997
0.035540 0.882162 0.180723
0.038839 0.882269 0.176987
0.042519 0.881805 0.174729
0.045983 0.881287 0.168782
0.043444 0.879624 0.168318
0.052775 0.878864 0.155041
-0.022184 0.886604 0.077148
-0.016190 0.894778 0.068152
0.411937 0.886169 0.057653
0.598906 0.867724 0.041273
0.726398 0.856492 0.040742
0.862544 0.846150 0.043671
0.940034 0.837243 0.051087
0.942809 0.831390 0.050544
0.957199 0.830372 0.052989
0.032584 0.889853 0.187475
0.036217 0.890849 0.184540
0.034521 0.893026 0.180373
0.043060 0.892788 0.177865
0.044109 0.893226 0.174227
0.052699 0.894890 0.174332
0.052563 0.895583 0.170718
0.071616 0.901555 0.132489
0.030245 0.909424 0.074484
0.281713 0.916501 0.080080
0.537992 0.912012 0.071760
0.674850 0.910328 0.067346
0.812877 0.909425 0.062851
0.911964 0.899856 0.063331
0.918037 0.898146 0.064875
0.933651 0.899000 0.065408
0.032977 0.896843 0.192395
0.037021 0.897670 0.189507
0.037983 0.897089 0.186816
0.046369 0.899251 0.182565
0.050978 0.899918 0.177102
0.058417 0.900392 0.174542
0.071995 0.900470 0.176017
0.097079 0.904917 0.147542
0.084555 0.910881 0.068412
0.210717 0.916033 0.080289
0.517386 0.912817 0.073200
0.657884 0.910599 0.070723
0.792713 0.909721 0.063033
0.902678 0.904575 0.069106
0.917210 0.900938 0.073646
0.929845 0.900384 0.072714
0.040818 0.981386 0.212705
0.041481 0.982070 0.210377
-0.015845 0.983057 0.207256
-0.059803 0.983721 0.207254
-0.110259 0.983724 0.204238
-0.167178 0.984281 0.201698
-0.228765 0.984892 0.200481
-0.285825 0.988406 0.179197
-0.348030 0.992841 0.123479
-0.360865 0.998033 0.116569
0.351785 0.996467 0.071487
0.565988 0.994625 0.063694
0.744604 0.994282 0.048602
0.867098 0.989120 0.055828
0.889689 0.985038 0.068521
0.901802 0.983274 0.073170
-0.059948 -0.464426 -0.069412
-0.056340 -0.464701 -0.069925
0.043455 -0.465159 -0.083136
0.139306 -0.465486 -0.109689
0.239991 -0.465641 -0.108250
0.346234 -0.465873 -0.080162
0.486416 -0.466394 0.085084
0.632054 -0.467958 0.140540
0.771780 -0.470120 0.165535
0.889734 -0.471522 0.166701
0.946399 -0.471288 0.157592
0.949243 -0.470528 0.156081
0.949395 -0.469113 0.153899
0.946436 -0.466827 0.152109
0.952644 -0.464678 0.148163
0.964397 -0.463519 0.144007
0.020620 0.119047 0.052397
-0.012506 0.118929 0.056172
-0.026530 0.118831 0.049148
0.106806 0.119353 0.057723
0.201332 0.119623 0.062524
0.294653 0.119836 0.055040
0.420610 0.120394 0.050509
0.555023 0.121327 0.035009
0.689479 0.122559 -0.019094
0.816299 0.123769 -0.034909
0.894009 0.124948 -0.025663
0.909316 0.124675 -0.018733
0.925715 0.123977 -0.020618
0.935497 0.123380 -0.013220
0.946944 0.123150 -0.012154
0.959051 0.122967 0.014241
0.004316 -0.018969 0.033676
-0.018043 -0.022530 0.033369
-0.037648 -0.023927 0.037111
0.088465 -0.029970 0.029419
0.191357 -0.033981 0.025422
0.288965 -0.033682 0.025157
0.403210 -0.030188 0.018820
0.533443 -0.024865 0.016743
0.673664 -0.015024 0.021982
0.802430 0.022785 0.029451
0.897793 0.034812 0.034391
0.913028 0.041355 0.034232
0.929219 0.043454 0.034049
0.938548 0.049553 0.037488
0.949353 0.048626 0.036176
0.961394 0.049677 0.036881
0.003935 0.091705 0.042869
0.008743 0.091071 0.040189
-0.036878 0.086464 0.021309
-0.029840 0.070524 -0.013535
0.146932 0.082850 -0.007073
0.245553 0.087561 0.008107
0.350654 0.072381 0.014137
0.490910 0.057544 0.020288
0.644288 0.067063 0.025927
0.785085 0.080706 0.031100
0.898034 0.086421 0.037470
0.913029 0.080509 0.036735
0.927319 0.075337 0.038343
0.937659 0.070943 0.037261
0.948114 0.067246 0.038740
0.960723 0.067766 0.039227
0.005160 0.184190 0.041935
0.009667 0.183509 0.039567
-0.022536 0.178117 0.034944
-0.025610 0.161193 -0.010785
0.101693 0.140720 0.006593
0.212397 0.156177 0.007890
0.315085 0.169856 0.012206
0.432652 0.177474 0.016446
0.588487 0.170281 0.022492
0.742375 0.139930 0.028904
0.882427 0.112515 0.035165
0.920985 0.105065 0.035590
0.928910 0.104615 0.038128
0.937181 0.106356 0.037097
0.948480 0.106153 0.038583
0.960929 0.107983 0.039015
0.007516 0.262398 0.044955
0.010412 0.261753 0.040802
-0.011475 0.256510 0.039762
0.039854 0.247971 -0.014892
0.052265 0.238553 0.008799
0.187279 0.221182 0.007633
0.289673 0.232022 0.010211
0.406516 0.249595 0.014697
0.539540 0.265184 0.019429
0.693435 0.274379 0.025246
0.851006 0.260634 0.032131
0.924553 0.240289 0.037060
0.929518 0.216368 0.037546
0.943049 0.205407 0.037535
0.951079 0.194662 0.038010
0.959533 0.193575 0.038312
0.010342 0.347800 0.056511
0.013069 0.348835 0.051600
0.013411 0.347134 0.048988
-0.031154 0.342256 0.012632
0.073014 0.338758 -0.009361
0.117677 0.323635 0.012181
0.269334 0.304686 0.011551
0.381317 0.314330 0.012585
0.519225 0.335818 0.018048
0.660891 0.352456 0.023046
0.822101 0.356789 0.031670
0.926294 0.351773 0.035155
0.930718 0.341860 0.034790
0.941939 0.338902 0.037249
0.949919 0.332473 0.036479
0.956842 0.334075 0.036663
0.013732 0.444241 0.074086
0.016337 0.442918 0.070087
0.019269 0.439149 0.067441
-0.021637 0.433143 0.062650
0.068224 0.438607 -0.027234
0.092727 0.427939 -0.005998
0.222827 0.413952 0.015327
0.357494 0.400199 0.014323
0.481733 0.403809 0.015524
0.632027 0.431940 0.021421
0.776935 0.442773 0.026143
0.908998 0.441772 0.034254
0.932337 0.434988 0.034063
0.940796 0.431737 0.033759
0.948861 0.427399 0.035556
0.954794 0.429451 0.035535
0.017466 0.549340 0.106672
0.020259 0.547404 0.101051
0.024656 0.546219 0.094118
0.017341 0.537792 0.088233
-0.035031 0.536424 0.070729
0.103422 0.537547 -0.015120
0.132301 0.514470 0.019303
0.338685 0.501116 0.018684
0.460058 0.487853 0.016368
0.597430 0.500550 0.019488
0.748349 0.524174 0.025296
0.891094 0.526653 0.033916
0.936539 0.514905 0.032211
0.938470 0.512170 0.031532
0.946628 0.506477 0.034334
0.952896 0.507988 0.034192
0.021201 0.647989 0.137446
0.024242 0.646697 0.132833
0.024031 0.646570 0.127085
0.033799 0.641635 0.121855
0.015650 0.634798 0.116059
-0.026060 0.638884 -0.039815
0.130616 0.635540 0.014416
0.252524 0.608616 0.025325
0.449622 0.593140 0.020517
0.559274 0.584891 0.019167
0.705020 0.598016 0.019566
0.861138 0.607238 0.029372
0.942424 0.598924 0.030736
0.937657 0.589300 0.034927
0.946863 0.585158 0.035754
0.953293 0.585417 0.035633
0.024798 0.735112 0.156130
0.027952 0.733313 0.152358
0.031232 0.732588 0.148005
0.032084 0.728763 0.142490
0.029934 0.722902 0.139597
0.018088 0.721741 0.117310
0.084618 0.734188 -0.026601
0.137958 0.724118 0.016299
0.381129 0.696357 0.023027
0.543465 0.682160 0.021172
0.663987 0.679293 0.022748
0.812580 0.685980 0.024778
0.933015 0.677579 0.035622
0.937440 0.670442 0.032096
0.942680 0.665259 0.035472
0.951591 0.664177 0.037484
0.028870 0.821858 0.176133
0.032142 0.820410 0.173170
0.030711 0.815716 0.167949
0.039439 0.813586 0.165362
0.038169 0.809095 0.162247
0.038945 0.803052 0.157775
0.040089 0.805829 0.124625
0.081435 0.816820 0.045117
0.218987 0.807389 0.037734
0.507869 0.780698 0.020831
0.642168 0.763852 0.013810
0.764342 0.765104 0.020608
0.911560 0.759640 0.040039
0.936065 0.751233 0.049408
0.942040 0.746463 0.048495
0.954792 0.746590 0.052838
0.032160 0.882226 0.199287
0.035454 0.882827 0.196781
0.038724 0.882652 0.193574
0.041002 0.883329 0.189954
0.045730 0.882140 0.187391
0.044690 0.878798 0.185073
0.056153 0.878669 0.174791
0.055985 0.885368 0.126384
-0.116406 0.893406 0.075065
0.406605 0.888215 0.069838
0.599603 0.867885 0.055261
0.726252 0.858926 0.045688
0.869971 0.848468 0.055696
0.937429 0.835189 0.065031
0.942547 0.830866 0.065523
0.955857 0.828694 0.067240
0.032629 0.889892 0.202811
0.036011 0.890919 0.200390
0.037628 0.890663 0.196500
0.041632 0.894120 0.194793
0.044520 0.892835 0.191251
0.042760 0.894699 0.190115
0.052264 0.895019 0.187831
0.079636 0.901557 0.161026
-0.099011 0.909446 0.088052
0.267475 0.918259 0.091397
0.537359 0.914944 0.085827
0.675866 0.912569 0.077252
0.814280 0.911653 0.072583
0.912995 0.900032 0.079185
0.914355 0.895125 0.082094
0.930106 0.895388 0.082441
0.033056 0.897141 0.208241
0.036892 0.897812 0.205929
0.037769 0.897470 0.203453
0.046167 0.899292 0.201373
0.050326 0.899032 0.195405
0.061224 0.901103 0.193862
0.071819 0.899865 0.193476
0.099613 0.904320 0.172360
0.077480 0.910887 0.110519
0.181099 0.917823 0.089582
0.512509 0.915038 0.087562
0.657898 0.913007 0.081960
0.794875 0.911232 0.072728
0.902699 0.904832 0.079237
0.914296 0.899545 0.090146
0.927366 0.899362 0.088607
0.048505 0.981246 0.219298
0.046875 0.981961 0.217847
0.018747 0.982856 0.216911
-0.058669 0.983765 0.216421
-0.107354 0.983564 0.216742
-0.164851 0.985176 0.212406
-0.229576 0.984551 0.210059
-0.287554 0.988086 0.193500
-0.347179 0.992678 0.151009
-0.370967 0.999547 0.123291
0.346015 0.999687 0.077632
0.567982 0.996782 0.068817
0.744600 0.995944 0.060916
0.868372 0.990194 0.063999
0.885313 0.983471 0.083962
0.898588 0.982084 0.088619
-0.101301 -0.464289 0.148621
-0.098855 -0.464577 0.143226
-0.036992 -0.465067 0.132273
0.138239 -0.465450 0.115394
0.233869 -0.465741 0.101719
0.344784 -0.465993 0.125554
0.483715 -0.466478 0.170889
0.640143 -0.467787 0.198448
0.772970 -0.470264 0.198034
0.888711 -0.472433 0.189783
0.945803 -0.472604 0.183303
0.946474 -0.471635 0.179005
0.947869 -0.470004 0.176155
0.948108 -0.467078 0.172572
0.953126 -0.464194 0.166837
0.964887 -0.462744 0.163081
0.035806 0.118947 0.139926
0.024263 0.118704 0.145726
0.062720 0.119020 0.140514
0.112565 0.119415 0.124471
0.197245 0.119644 0.128018
0.295576 0.119881 0.133527
0.419949 0.120376 0.146170
0.561961 0.121324 0.139177
0.692743 0.122632 0.113686
0.815625 0.124013 0.096956
0.890419 0.124739 0.096920
0.907150 0.125005 0.089534
0.925978 0.124268 0.086968
0.934334 0.123596 0.083504
0.947090 0.123170 0.081381
0.959174 0.122851 0.082555
0.005324 0.051650 0.117525
-0.018311 0.049265 0.118089
-0.036293 0.025544 0.129274
0.091819 -0.036192 0.119367
0.189574 -0.032708 0.113201
0.285937 -0.022394 0.115047
0.404728 0.015309 0.123708
0.537392 0.024344 0.119112
0.674478 0.031423 0.100503
0.800403 0.037563 0.092611
0.897746 0.041641 0.090148
0.913526 0.045982 0.085325
0.928620 0.044703 0.079830
0.937566 0.045679 0.078025
0.949146 0.047460 0.074736
0.960696 0.048076 0.075264
0.003412 0.092882 0.096289
0.006166 0.091817 0.094954
-0.034003 0.090927 0.094435
-0.051798 0.093054 0.108585
0.174136 0.073365 0.092379
0.281639 0.036029 0.077454
0.385087 -0.056309 0.073715
0.520086 -0.055795 0.068113
0.662889 -0.047214 0.058980
0.793294 -0.028861 0.030532
0.904237 0.033781 0.036364
0.919859 0.039261 0.034575
0.932005 0.033245 0.037291
0.940147 0.036606 0.035737
0.951260 0.033086 0.037358
0.963086 0.034762 0.038336
0.004493 0.169480 0.102066
0.008105 0.167489 0.100405
-0.007655 0.164013 0.094518
-0.053958 0.164810 0.085375
0.089159 0.165367 0.059023
0.238457 0.156342 0.035019
0.341980 0.164643 0.028415
0.457795 0.161010 0.022807
0.605305 0.144950 0.030244
0.750356 0.118585 0.035501
0.885553 0.099501 0.041909
0.924242 0.095440 0.041717
0.930660 0.095914 0.041642
0.941480 0.098779 0.043507
0.950881 0.099103 0.042527
0.962391 0.100641 0.043132
0.007344 0.257348 0.098557
0.010013 0.256866 0.093147
0.010977 0.251806 0.087790
-0.026725 0.249719 0.076165
-0.071786 0.254068 -0.000929
0.183056 0.224190 0.016503
0.293989 0.233387 0.015851
0.411038 0.248657 0.019288
0.544410 0.263793 0.022744
0.696356 0.270544 0.028774
0.853501 0.254997 0.036030
0.928703 0.228913 0.038150
0.929905 0.207042 0.041556
0.946119 0.194941 0.041432
0.953302 0.184276 0.042069
0.961215 0.184512 0.042278
0.010193 0.343494 0.092628
0.012837 0.343682 0.085538
0.015899 0.342432 0.077443
-0.012734 0.336441 0.065782
0.051493 0.341613 -0.023419
0.106579 0.328705 0.018200
0.269565 0.305438 0.016055
0.382855 0.313784 0.014688
0.522310 0.334611 0.020574
0.663744 0.350897 0.026425
0.824083 0.354176 0.032696
0.927832 0.348943 0.040074
0.934841 0.335486 0.039837
0.944339 0.333664 0.038171
0.951526 0.328562 0.040313
0.958363 0.330452 0.040348
