app/src/main/assets/lut_presets/低对比.cube
LUT_3D_SIZE 6
-0.005788 -0.010324 0.002670
0.114141 -0.002466 0.005409
0.432257 0.010665 0.012193
0.830855 0.031437 0.026014
0.925715 0.037929 0.031223
0.957661 0.038550 0.031869
-0.003010 0.120458 0.015637
0.028638 0.066271 -0.000910
0.341268 0.092403 0.008752
0.778847 0.093929 0.024014
0.921725 0.095438 0.030661
0.957407 0.090641 0.031749
0.010758 0.355375 0.042282
0.051857 0.340083 0.006249
0.267349 0.304895 0.007401
0.648639 0.352266 0.017351
0.926682 0.345585 0.029383
0.954187 0.338563 0.030110
0.021279 0.649697 0.104430
0.029984 0.645578 0.081386
0.145876 0.623537 0.008910
0.551175 0.580774 0.015724
0.940310 0.602140 0.029454
0.950304 0.588596 0.028602
0.032116 0.881964 0.168517
0.044054 0.882896 0.158117
0.041137 0.879053 0.132006
0.415020 0.883610 0.046781
0.861864 0.842823 0.031529
0.957216 0.832357 0.040730
0.037770 0.981334 0.198039
-0.058910 0.983294 0.190691
-0.226997 0.984854 0.183385
-0.353458 0.996240 0.101735
0.743121 0.991668 0.026722
0.906864 0.985588 0.052697
-0.101301 -0.464289 0.148621
0.138239 -0.465450 0.115394
0.483715 -0.466478 0.170889
0.888711 -0.472433 0.189783
0.947869 -0.470004 0.176155
0.964887 -0.462744 0.163081
0.003412 0.092882 0.096289
-0.051798 0.093054 0.108585
0.385087 -0.056309 0.073715
0.793294 -0.028861 0.030532
0.932005 0.033245 0.037291
0.963086 0.034762 0.038336
0.010193 0.343494 0.092628
-0.012734 0.336441 0.065782
0.269565 0.305438 0.016055
0.663744 0.350897 0.026425
0.934841 0.335486 0.039837
0.958363 0.330452 0.040348
0.021128 0.646095 0.152601
0.031953 0.638218 0.140270
0.108938 0.639964 0.012718
0.563844 0.586318 0.020926
0.940069 0.596045 0.034162
0.956177 0.583793 0.043122
0.032162 0.882106 0.214511
0.041167 0.882459 0.208629
0.058786 0.878266 0.193148
0.395929 0.890628 0.083419
0.871498 0.851444 0.072608
0.951597 0.825454 0.083938
0.038705 0.981513 0.209504
-0.067512 0.982731 0.215019
-0.221203 0.984338 0.211911
-0.384188 1.000057 0.097576
0.747151 0.998145 -0.060125
0.897973 0.982414 0.071048
0.191804 -0.463235 0.609221
0.275257 -0.464500 0.559870
0.478682 -0.465993 0.496484
0.881971 -0.473457 0.551467
0.951247 -0.473785 0.537251
0.960559 -0.469830 0.530062
-0.016916 0.169191 0.446766
0.156897 -0.056669 0.502764
0.381511 -0.009469 0.437551
0.767505 0.045729 0.437347
0.925560 0.047009 0.421160
0.960695 0.049232 0.421799
0.012629 0.361127 0.374107
0.015188 0.345774 0.353012
0.234786 0.361023 0.399669
0.747311 0.333583 0.392958
0.983122 0.296397 0.369347
1.000797 0.283367 0.361303
0.021131 0.644033 0.369299
0.028084 0.637251 0.354752
0.055928 0.632450 0.323942
0.608796 0.643121 0.183975
0.981186 0.597000 0.221476
0.992867 0.583066 0.214389
0.032210 0.881840 0.331055
0.040806 0.883599 0.320824
0.056277 0.878843 0.293743
0.299786 0.893248 0.137728
0.869727 0.850830 0.116375
0.951847 0.821141 0.138791
-0.084623 0.980998 -0.175717
-0.133969 0.982025 -0.154339
-0.246859 0.984608 -0.129369
-0.416505 0.997561 -0.237140
0.739823 1.003723 -0.266465
0.925439 1.000605 -0.250983
0.256357 -0.461269 0.992504
0.372791 -0.462614 0.974646
0.625222 -0.464842 0.950104
0.929403 -0.475248 0.913196
0.962158 -0.486548 0.895827
0.951949 -0.484225 0.890433
0.134270 -0.051221 0.918300
0.255102 0.025950 0.905313
0.506244 0.068146 0.867118
0.807314 0.044395 0.811112
0.938606 0.048019 0.788113
0.958879 0.047231 0.778535
0.027375 0.447050 0.786952
-0.042049 0.436022 0.772112
0.370500 0.378979 0.860590
0.764123 0.303794 0.803829
0.980111 0.231146 0.753684
0.996754 0.186755 0.736218
0.023668 0.659630 0.706971
0.031901 0.647178 0.691527
-0.059676 0.642216 0.682844
0.635889 0.681040 0.768165
1.011384 0.655664 0.741800
1.011091 0.642741 0.729904
0.032690 0.887271 0.654312
0.040186 0.885927 0.645408
0.053985 0.877534 0.625666
0.208023 0.902533 0.603705
0.921464 0.902009 0.592173
0.994934 0.860769 0.598104
-0.106772 0.981061 0.488560
-0.172829 0.982723 0.472736
-0.295436 0.985189 0.448398
-0.422785 0.996824 0.425358
0.769553 1.027361 0.317252
0.954008 1.017256 0.286719
0.260137 -0.461272 1.004486
0.387745 -0.462449 1.001139
0.633159 -0.464154 0.996114
0.933771 -0.476136 0.980259
0.944427 -0.502046 0.974755
0.928323 -0.501417 0.976217
0.176714 -0.039491 1.000294
0.278404 0.056994 0.992159
0.529041 0.070469 0.982089
0.817692 0.049107 0.962044
0.930695 0.044545 0.959880
0.953913 0.047240 0.959117
0.018499 0.461434 0.951494
-0.062391 0.453916 0.967840
0.435991 0.388938 1.025332
0.768816 0.242128 1.011799
0.966706 0.155992 1.000804
0.989748 0.153984 1.001694
0.033039 0.680841 0.954610
0.047711 0.673446 0.957597
-0.083276 0.666289 0.980324
0.689805 0.699727 1.037603
1.002058 0.646642 1.026325
1.009618 0.633651 1.019525
0.032997 0.894544 0.946319
0.049345 0.894228 0.947489
0.053348 0.886677 0.945226
0.315116 0.911412 0.982629
0.956421 0.924780 1.011062
1.011817 0.904139 0.985441
-0.109890 0.981476 0.888475
-0.175949 0.983378 0.884170
-0.294444 0.984201 0.875578
-0.381561 1.007275 0.882107
0.876312 1.055866 0.959031
1.006491 1.034202 0.935544
0.260022 -0.461015 1.008731
0.390970 -0.462008 1.004760
0.630728 -0.463911 0.996336
0.929386 -0.479879 0.980781
0.942786 -0.503207 0.962528
0.926022 -0.511849 0.959130
0.181540 0.029984 1.018944
0.279478 0.051516 1.014093
0.529241 0.070206 1.003038
0.815310 0.049991 0.990300
0.926255 0.044460 0.986023
0.948870 0.047650 0.984542
0.010576 0.462965 0.981883
-0.053909 0.450586 1.001097
0.444111 0.392509 1.037631
0.759570 0.242685 1.027903
0.960230 0.141038 1.019398
0.983945 0.168638 1.022589
0.033878 0.678926 0.978517
0.044111 0.671542 0.983009
-0.088983 0.663346 1.003121
0.700039 0.702095 1.049511
0.992103 0.648331 1.044800
1.003849 0.633901 1.041907
0.033740 0.890637 0.975465
0.043068 0.891166 0.978361
0.053900 0.881711 0.980182
0.362500 0.897307 1.026757
0.955514 0.923704 1.055840
1.022908 0.910482 1.054759
0.031852 0.910320 0.972773
0.043325 0.911481 0.974311
0.044471 0.913204 0.976192
0.246576 0.943942 1.013223
0.872919 0.972387 1.049237
1.027252 0.979524 1.056447
