app/src/main/assets/lut_presets/复古深棕.cube
TITLE "Generated by Resolve"
LUT_3D_SIZE 33
0.0454719 0 0
0.0856031 0 0
0.12639 0 0
0.167147 0 0
0.207858 0 0
0.248524 0 0
0.289128 0 0
0.329961 0 0
0.371908 0 0
0.413489 0 0
0.454719 0 0
0.488716 0 0
0.52665 0 0
0.566171 0 0
0.602197 0 0
0.638422 0 0
0.675013 0 0
0.714214 0 0
0.754269 0 0
0.794232 0 0
0.83537 0 0
0.879683 0 0
0.924239 0 0
0.96878 0 0
1 0 0
1 0 0
1 0 0
1 0 0
1 0 0
1 0 0
1 0 0
1 0 0
1 0 0
0.0224002 0 0
0.0624857 0 0
0.103227 0 0
0.143923 0 0
0.184588 0 0
0.22536 0 0
0.266773 0 0
0.309194 0 0
0.352544 0 0
0.395285 0 0
0.437247 0 0
0.475441 0 0
0.502464 0 0
0.541939 0 0
0.577951 0 0
0.614298 0 0
0.651087 0 0
0.690532 0 0
0.730755 0 0
0.770779 0 0
0.811933 0 0
0.856275 0 0
0.900908 0 0
0.945418 0 0
0.989914 0 0
1 0 0
1 0 0
1 0 0
1 0 0
1 0 0
1 0 0
1 0 0
1 0 0
0 0 0
0.0394598 0 0
0.0801556 0 0
0.120592 0 0
0.161929 0 0
0.204196 0 0
0.247257 0 0
0.290913 0 0
0.335073 0 0
0.378134 0 0
0.419913 0 0
0.461097 0 0
0.479957 0 0
0.51841 0 0
0.55465 0 0
0.591089 0 0
0.627939 0 0
0.667414 0 0
0.707652 0 0
0.747707 0 0
0.788891 0 0
0.833341 0 0
0.878065 0 0
0.922667 0 0
0.967285 0 0
1 0 0
1 0 0
1 0 0
1 0 0
1 0 0
1 0 0
1 0 0
1 0 0
0 0.0146181 0
0.0159915 0.00759899 0
0.0564584 0.000564584 0
0.0968795 0 0
0.137285 0 0
0.185626 0 0
0.229541 0 0
0.273686 0 0
0.317891 0 0
0.360571 0 0
0.401465 0 0
0.441169 0 0
0.464378 0 0
0.495613 0 0
0.531853 0 0
0.568322 0 0
0.605188 0 0
0.644694 0 0
0.685039 0 0
0.7252 0 0
0.766506 0 0
0.811109 0 0
0.856291 0 0
0.90161 0 0
0.947036 0 0
0.992477 0 0
1 0 0
1 0 0
1 0 0
1 0 0
1 0 0
1 0 0
1 0 0
0 0.0474708 0
0 0.0404517 0
0.0330205 0.0334478 0
0.0734112 0.0264591 0
0.113817 0.0195315 0
0.154391 0.0128023 0
0.198871 0.00502022 0
0.256504 0 0
0.299886 0 0
0.341039 0 0
0.380163 0 0
0.419028 0 0
0.449409 0 0
0.473182 0 0
0.509483 0 0
0.546075 0 0
0.583078 0 0
0.622705 0 0
0.66331 0 0
0.704036 0 0
0.746197 0 0
0.791638 0 0
0.837354 0 0
0.883314 0 0
0.929686 0 0
0.976242 0 0
1 0 0
1 0 0
1 0 0
1 0 0
1 0 0
1 0 0
1 0 0
0 0.0803082 0
0 0.0733959 0
0.0100404 0.0666209 0
0.0507057 0.059968 0
0.0914321 0.0533913 0
0.132097 0.0468299 0
0.172686 0.0402838 0
0.213352 0.0337835 0
0.267216 0.0236515 0
0.318959 0.0138247 0
0.358312 0.00727855 0
0.397269 0.000946059 0
0.432349 0 0
0.452171 0 0
0.487907 0 0
0.52488 0 0
0.5626 0 0
0.603113 0 0
0.64445 0 0
0.685786 0 0
0.728832 0 0
0.775296 0 0
0.822141 0 0
0.868864 0 0
0.915557 0 0
0.962264 0 0
1 0 0
1 0 0
1 0 0
1 0 0
1 0 0
1 0 0
1 0 0
0 0.113863 0
0 0.107225 0
0 0.100618 0
0.0288396 0.0941024 0
0.0695964 0.0876326 0
0.110277 0.0811475 0
0.150896 0.0746929 0
0.191608 0.0683146 0
0.232578 0.0620279 0
0.276905 0.0545663 0
0.330602 0.0442054 0
0.376349 0.0363317 0
0.413855 0.031754 0
0.434256 0.0323491 0
0.469078 0.0281224 0
0.506752 0.0233005 0
0.545113 0.0189059 0
0.586572 0.0151217 0
0.629129 0.0118105 0
0.671534 0.00866712 0
0.715175 0.00573739 0
0.761944 0.00289921 0
0.808927 0.000137331 0
0.855817 0 0
0.902602 0 0
0.949355 0 0
0.996078 0 0
1 0 0
1 0 0
1 0 0
1 0 0
1 0 0
1 0 0
0 0.147921 0
0 0.141405 0
0 0.13489 0
0.00733959 0.12845 0
0.0482032 0.122148 0
0.0890211 0.115877 0
0.129793 0.109651 0
0.170657 0.103487 0
0.211963 0.097612 0
0.252522 0.0921645 0
0.292729 0.0869612 0
0.343404 0.0790265 0
0.393469 0.0718547 0
0.418433 0.0723278 0
0.453544 0.0696422 0
0.4925 0.0663767 0
0.531838 0.0631876 0
0.57377 0.0601205 0
0.616526 0.0571908 0
0.65922 0.0545357 0
0.702968 0.0519265 0
0.749752 0.0492714 0
0.796796 0.0467536 0
0.843748 0.044358 0
0.890639 0.0420691 0
0.937453 0.0398413 0
0.984192 0.0376745 0
1 0.0358282 0
1 0.0339513 0
1 0.032105 0
1 0.0303044 0
1 0.0285801 0
1 0.026978 0
0 0.182513 0
0 0.176135 0
0 0.169863 0
0 0.163684 0
0.0276951 0.157595 0
0.068986 0.151843 0
0.110597 0.146502 0
0.152483 0.141436 0
0.194583 0.136461 0
0.235843 0.131823 0
0.276677 0.127825 0
0.317998 0.124437 0
0.364034 0.120104 0
0.404273 0.117479 0
0.44155 0.114839 0
0.480674 0.111925 0
0.520195 0.109102 0
0.56228 0.106355 0
0.605097 0.10367 0
0.647929 0.10135 0
0.691707 0.0989395 0
0.738598 0.0966049 0
0.785687 0.094316 0
0.832654 0.092134 0
0.879576 0.090074 0
0.926452 0.0881056 0
0.973236 0.0861982 0
1 0.0844739 0
1 0.0828412 0
1 0.0811933 0
1 0.0796216 0
1 0.0780957 0
1 0.0766308 0
0 0.21622 0
0 0.210178 0
0 0.204623 0
0 0.199405 0
0.0102998 0.194339 0
0.052369 0.18941 0
0.0947433 0.184909 0
0.137713 0.181018 0
0.181216 0.177569 0
0.223667 0.174243 0
0.26511 0.171008 0
0.306767 0.168109 0
0.34934 0.165179 0
0.391897 0.162325 0
0.430823 0.159518 0
0.470008 0.156832 0
0.509606 0.154269 0
0.551812 0.151812 0
0.594781 0.149477 0
0.637613 0.147326 0
0.681407 0.145113 0
0.728359 0.143023 0
0.775509 0.141024 0
0.822492 0.139055 0
0.869413 0.137163 0
0.916274 0.135378 0
0.963149 0.133791 0
1 0.132311 0
1 0.130724 0
1 0.129213 0
1 0.127779 0
1 0.126421 0
1 0.125109 0
0 0.250431 0
0 0.24535 0
0 0.240558 0
0 0.236332 0
0 0.232563 0
0.0401312 0.229129 0
0.0835431 0.225772 0
0.127031 0.222507 0
0.170764 0.219409 0
0.213413 0.216449 0
0.255192 0.213703 0
0.296818 0.210925 0
0.339452 0.208209 0
0.382101 0.205631 0
0.42118 0.203143 0
0.460456 0.200702 0
0.500084 0.198352 0
0.542336 0.196124 0
0.585504 0.194186 0
0.628275 0.192157 0
0.672068 0.190143 0
0.71899 0.18822 0
0.766155 0.186389 0
0.813169 0.184649 0
0.860075 0.182971 0
0.906889 0.181323 0
0.953826 0.180026 0
1 0.178546 0
1 0.177127 0
1 0.175738 0
1 0.174411 0
1 0.173129 0
1 0.171908 0
0 0.286183 0
0 0.282597 0
0 0.27924 0
0 0.275853 0
0 0.272587 0
0.030457 0.26949 0
0.0741131 0.266484 0
0.117754 0.263539 0
0.161578 0.26067 0
0.20444 0.258076 0
0.246296 0.255543 0
0.287999 0.25301 0
0.330694 0.250523 0
0.373358 0.248142 0
0.412497 0.245884 0
0.451865 0.243702 0
0.491539 0.241581 0
0.533776 0.239536 0
0.576989 0.237812 0
0.619745 0.23595 0
0.663584 0.234165 0
0.710491 0.23241 0
0.757595 0.230732 0
0.804547 0.229129 0
0.851423 0.227588 0
0.898192 0.226108 0
0.945022 0.224872 0
0.991623 0.223529 0
1 0.222202 0
1 0.22092 0
1 0.219669 0
1 0.218448 0
1 0.217258 0
0 0.324239 0
0 0.321172 0
0 0.318044 0
0 0.315007 0
0 0.312016 0
0.0220493 0.309133 0
0.0657969 0.306371 0
0.109621 0.303731 0
0.153552 0.301137 0
0.196414 0.29868 0
0.238376 0.296422 0
0.28014 0.294133 0
0.322942 0.29192 0
0.365652 0.289738 0
0.404776 0.287648 0
0.444144 0.285649 0
0.483864 0.283742 0
0.526238 0.282017 0
0.569314 0.280339 0
0.612009 0.278599 0
0.655802 0.276967 0
0.702693 0.27538 0
0.749737 0.273823 0
0.796613 0.272328 0
0.843381 0.270878 0
0.890211 0.269673 0
0.936828 0.268406 0
0.983276 0.267079 0
1 0.265812 0
1 0.264561 0
1 0.26334 0
1 0.26215 0
1 0.261006 0
0 0.361044 0
0 0.35819 0
0 0.355322 0
0 0.352544 0
0 0.349859 0
0.0148318 0.347219 0
0.0586252 0.344656 0
0.102495 0.342229 0
0.146593 0.33994 0
0.189654 0.33785 0
0.231479 0.335622 0
0.273243 0.333486 0
0.31606 0.331456 0
0.358816 0.329503 0
0.397955 0.327596 0
0.437278 0.325734 0
0.477058 0.324071 0
0.519417 0.322515 0
0.562341 0.320867 0
0.60499 0.319265 0
0.648676 0.317708 0
0.695476 0.316213 0
0.742428 0.314763 0
0.789212 0.313344 0
0.835859 0.311971 0
0.882612 0.310872 0
0.929015 0.30956 0
0.975311 0.308278 0
1 0.307027 0
1 0.305821 0
1 0.304646 0
1 0.303517 0
1 0.302419 0
0 0.393454 0
0 0.390768 0
0 0.388083 0
0 0.385504 0
0 0.383032 0
0.00866712 0.380652 0
0.0525368 0.378332 0
0.0964065 0.376059 0
0.140688 0.374105 0
0.183627 0.372061 0
0.225483 0.370047 0
0.267262 0.368078 0
0.310018 0.366171 0
0.352743 0.364355 0
0.391867 0.3626 0
0.431159 0.360891 0
0.470787 0.359258 0
0.51313 0.35787 0
0.555962 0.356313 0
0.59852 0.354803 0
0.6421 0.353323 0
0.688762 0.351888 0
0.735576 0.350469 0
0.782208 0.349096 0
0.828779 0.347829 0
0.875319 0.346685 0
0.921584 0.345403 0
0.967742 0.344182 0
1 0.342977 0
1 0.341817 0
1 0.340688 0
1 0.339605 0
1 0.338704 0
0 0.425727 0
0 0.423224 0
0 0.420798 0
0 0.418418 0
0 0.416114 0
0.00341802 0.413901 0
0.0473487 0.41178 0
0.0912642 0.40972 0
0.135439 0.407843 0
0.178408 0.405982 0
0.220264 0.40412 0
0.262013 0.402304 0
0.304738 0.400549 0
0.347372 0.398825 0
0.386404 0.397147 0
0.42562 0.395544 0
0.465309 0.394171 0
0.507378 0.392676 0
0.550072 0.391165 0
0.592477 0.389685 0
0.63592 0.388251 0
0.682429 0.386831 0
0.729107 0.385458 0
0.775647 0.384176 0
0.822187 0.383078 0
0.868437 0.381811 0
0.914565 0.380575 0
0.960586 0.3794 0
1 0.378256 0
1 0.377157 0
1 0.376104 0
1 0.375082 0
1 0.37435 0
0 0.457786 0
0 0.455451 0
0 0.453208 0
0 0.451041 0
0 0.448905 0
0 0.44683 0
0.0429694 0.444846 0
0.0870069 0.443061 0
0.131136 0.441291 0
0.173953 0.43946 0
0.215717 0.43769 0
0.257374 0.435966 0
0.300008 0.434287 0
0.34255 0.432654 0
0.38146 0.431052 0
0.420706 0.429664 0
0.460136 0.428183 0
0.502007 0.426673 0
0.544549 0.425193 0
0.586816 0.423758 0
0.630121 0.422354 0
0.676493 0.420996 0
0.723033 0.419669 0
0.769375 0.418387 0
0.815854 0.41738 0
0.861982 0.41619 0
0.907988 0.41503 0
0.953872 0.413901 0
0.999649 0.412818 0
1 0.41178 0
1 0.410773 0
1 0.409842 0
1 0.409125 0
0 0.492485 0
0 0.490303 0
0 0.488197 0
0 0.486152 0
0 0.484184 0
0 0.482246 0
0.0393378 0.480354 0
0.0834211 0.478767 0
0.127337 0.476997 0
0.170077 0.475242 0
0.211734 0.473548 0
0.253269 0.471885 0
0.29575 0.470237 0
0.33814 0.468635 0
0.376898 0.467063 0
0.41593 0.465629 0
0.455283 0.464271 0
0.497017 0.462806 0
0.539437 0.461387 0
0.581567 0.459998 0
0.624735 0.45864 0
0.670985 0.457343 0
0.717403 0.456077 0
0.763775 0.455009 0
0.809979 0.45391 0
0.85597 0.452766 0
0.901854 0.451667 0
0.947616 0.450599 0
0.993271 0.449561 0
1 0.448585 0
1 0.447654 0
1 0.446952 0
1 0.446128 0
0 0.52842 0
0 0.52639 0
0 0.524392 0
0 0.522454 0
0 0.520562 0
0 0.518715 0
0.0363317 0.51696 0
0.0802319 0.515373 0
0.124041 0.513664 0
0.166629 0.511955 0
0.208133 0.510292 0
0.249516 0.508659 0
0.291859 0.507042 0
0.334112 0.505486 0
0.372839 0.504051 0
0.41178 0.502708 0
0.450858 0.501259 0
0.49247 0.499855 0
0.534768 0.498482 0
0.576776 0.497154 0
0.619821 0.495872 0
0.665934 0.494621 0
0.712352 0.493553 0
0.758572 0.4925 0
0.804547 0.491371 0
0.850416 0.490288 0
0.896162 0.489235 0
0.941802 0.488228 0
0.98732 0.487251 0
1 0.48632 0
1 0.485435 0
1 0.484825 0
1 0.484031 0
0 0.565576 0
0 0.563638 0
0 0.56173 0
0 0.559869 0
0 0.558038 0
0 0.556252 0
0.0338903 0.554665 0
0.0774701 0.552972 0
0.121111 0.551278 0
0.163561 0.549615 0
0.204929 0.547982 0
0.246174 0.546395 0
0.288396 0.544839 0
0.33051 0.543328 0
0.369268 0.542092 0
0.407935 0.540673 0
0.446891 0.539284 0
0.48838 0.537926 0
0.530541 0.536614 0
0.572427 0.535348 0
0.615351 0.534127 0
0.661341 0.532921 0
0.707561 0.531838 0
0.753719 0.530907 0
0.799558 0.529839 0
0.845304 0.528817 0
0.890913 0.527825 0
0.936416 0.526864 0
0.981811 0.525948 0
1 0.525063 0
1 0.524346 0
1 0.52369 0
1 0.522927 0
0 0.604791 0
0 0.602899 0
0 0.601038 0
0 0.599207 0
0 0.597406 0
0 0.595636 0
0.0316777 0.594156 0
0.0750896 0.592462 0
0.118593 0.590814 0
0.160906 0.589197 0
0.202152 0.58761 0
0.243275 0.586084 0
0.285374 0.584588 0
0.327382 0.583139 0
0.365942 0.581903 0
0.404547 0.580591 0
0.443381 0.579263 0
0.484733 0.577966 0
0.526787 0.576715 0
0.568536 0.575494 0
0.611322 0.574319 0
0.657237 0.573236 0
0.703456 0.572335 0
0.74931 0.571283 0
0.795026 0.570275 0
0.840635 0.569284 0
0.886122 0.568353 0
0.931487 0.567452 0
0.976745 0.566583 0
1 0.56585 0
1 0.565225 0
1 0.564477 0
1 0.563775 0
0 0.646998 0
0 0.645136 0
0 0.643305 0
0 0.64152 0
0 0.639765 0
0 0.638163 0
0.0298466 0.636606 0
0.0731365 0.634974 0
0.116533 0.633387 0
0.158724 0.63183 0
0.199832 0.630304 0
0.240848 0.628824 0
0.282811 0.62739 0
0.324865 0.626154 0
0.36321 0.624887 0
0.401617 0.62356 0
0.440314 0.622293 0
0.481544 0.621057 0
0.523461 0.619852 0
0.565087 0.618692 0
0.607752 0.617563 0
0.653696 0.616709 0
0.699641 0.615702 0
0.745342 0.614694 0
0.790936 0.613733 0
0.836393 0.612802 0
0.881743 0.611917 0
0.926986 0.611063 0
0.972107 0.610254 0
1 0.609491 0
1 0.609003 0
1 0.608301 0
1 0.607645 0
0 0.689357 0
0 0.687541 0
0 0.685756 0
0 0.684016 0
0 0.682399 0
0 0.680888 0
0.0284886 0.679286 0
0.0716564 0.677699 0
0.114916 0.676158 0
0.156985 0.674662 0
0.197986 0.673198 0
0.238865 0.671778 0
0.280705 0.670405 0
0.322728 0.669306 0
0.360861 0.668009 0
0.399145 0.666743 0
0.43772 0.665522 0
0.478813 0.664332 0
0.520592 0.663188 0
0.562097 0.662089 0
0.604623 0.661021 0
0.650355 0.660121 0
0.696239 0.659236 0
0.741802 0.658289 0
0.787259 0.657374 0
0.832593 0.656504 0
0.877806 0.65565 0
0.922911 0.654856 0
0.967895 0.654093 0
1 0.653559 0
1 0.652934 0
1 0.652277 0
1 0.651667 0
0 0.731533 0
0 0.729763 0
0 0.728054 0
0 0.726375 0
0 0.724743 0
0 0.723354 0
0.0276036 0.721798 0
0.0706493 0.720287 0
0.113787 0.718791 0
0.155718 0.717357 0
0.196597 0.715953 0
0.237354 0.71458 0
0.279149 0.713329 0
0.320958 0.712215 0
0.358953 0.710964 0
0.397101 0.709758 0
0.435554 0.708583 0
0.476524 0.707454 0
0.518166 0.706355 0
0.559533 0.705303 0
0.602045 0.704402 0
0.647654 0.703563 0
0.693278 0.702617 0
0.738705 0.701717 0
0.784024 0.700847 0
0.829221 0.700023 0
0.874296 0.699229 0
0.919249 0.698466 0
0.964248 0.697932 0
1 0.697337 0
1 0.696696 0
1 0.696086 0
1 0.695521 0
0 0.773648 0
0 0.771939 0
0 0.770275 0
0 0.768658 0
0 0.767254 0
0 0.765759 0
0.0271611 0.764248 0
0.0700847 0.762783 0
0.113115 0.761364 0
0.154925 0.75996 0
0.195666 0.758618 0
0.236332 0.757351 0
0.278141 0.756268 0
0.319646 0.755047 0
0.357504 0.753841 0
0.395514 0.752682 0
0.433829 0.751568 0
0.474662 0.750484 0
0.516182 0.749447 0
0.557397 0.74844 0
0.599924 0.747707 0
0.645258 0.746792 0
0.690745 0.745892 0
0.736034 0.745037 0
0.781216 0.744213 0
0.826276 0.743435 0
0.871214 0.742702 0
0.91603 0.741985 0
0.9608 0.741405 0
1 0.740932 0
1 0.740337 0
1 0.739773 0
1 0.739254 0
0 0.815702 0
0 0.814038 0
0 0.812436 0
0 0.811032 0
0 0.809567 0
0 0.808072 0
0.0272068 0.806622 0
0.0699779 0.805203 0
0.112871 0.80383 0
0.154559 0.802502 0
0.195163 0.801205 0
0.23566 0.799939 0
0.277394 0.798962 0
0.318761 0.797787 0
0.356481 0.796628 0
0.394369 0.795514 0
0.432547 0.794446 0
0.473243 0.793423 0
0.514626 0.792432 0
0.555734 0.791485 0
0.598062 0.790753 0
0.64329 0.789914 0
0.68864 0.789059 0
0.733791 0.788251 0
0.77882 0.787488 0
0.823743 0.78674 0
0.868528 0.786038 0
0.913283 0.785458 0
0.958007 0.785 0
1 0.784421 0
1 0.783856 0
1 0.783337 0
1 0.782864 0
0 0.857664 0
0 0.856077 0
0 0.854505 0
0 0.853086 0
0 0.851759 0
0 0.850309 0
0.0276799 0.84892 0
0.0703288 0.847547 0
0.113085 0.84622 0
0.15465 0.844938 0
0.195117 0.843687 0
0.235645 0.842618 0
0.277089 0.84155 0
0.318303 0.840421 0
0.355901 0.839323 0
0.393652 0.838254 0
0.431693 0.837232 0
0.472251 0.836255 0
0.513497 0.835294 0
0.55465 0.834577 0
0.596689 0.833768 0
0.641733 0.832929 0
0.686946 0.83212 0
0.73196 0.831357 0
0.776852 0.830625 0
0.821622 0.829938 0
0.86627 0.829282 0
0.91104 0.828901 0
0.955459 0.828321 0
0.999741 0.827771 0
1 0.827268 0
1 0.82678 0
1 0.826337 0
0 0.899535 0
0 0.898009 0
0 0.896574 0
0 0.895277 0
0 0.893843 0
0 0.892454 0
0.0285954 0.891112 0
0.0711376 0.889799 0
0.113756 0.888518 0
