app/src/main/assets/lut_presets/复古深棕.cube
TITLE "Generated by Resolve"
LUT_3D_SIZE 5
0.0454719 0 0
0.371908 0 0
0.675013 0 0
1 0 0
1 0 0
0 0.182513 0
0.194583 0.136461 0
0.520195 0.109102 0
0.879576 0.090074 0
1 0.0766308 0
0 0.457786 0
0.131136 0.441291 0
0.460136 0.428183 0
0.815854 0.41738 0
1 0.409125 0
0 0.773648 0
0.113115 0.761364 0
0.433829 0.751568 0
0.781216 0.744213 0
1 0.739254 0
0 1 0
0.123659 1 0
0.435508 1 0
0.773404 1 0
1 1 0
0.0268254 0 0.387991
0.351125 0 0.331456
0.655543 0 0.275013
0.994308 0 0.222187
1 0 0.17583
0 0.165438 0.203876
0.183459 0.125338 0.163775
0.539117 0.0978714 0.100328
0.871397 0.0850385 0.123476
1 0.0732128 0.11165
0 0.451575 0.118547
0.127871 0.436377 0.108186
0.456046 0.424094 0.100816
0.810941 0.414145 0.0957961
1 0.406775 0.0934005
0 0.769284 0.0947738
0.112993 0.757839 0.0933242
0.432868 0.748898 0.0944076
0.779355 0.742367 0.0979629
1 0.738186 0.103914
0 1 0.099733
0.126207 1 0.106523
0.437049 1 0.115602
0.774121 1 0.126833
1 1 0.140139
0.00823987 0 0.764263
0.331807 0 0.70602
0.63679 0 0.649149
0.975891 0 0.595575
1 0 0.552178
0 0.149447 0.577585
0.174578 0.116457 0.541238
0.503624 0.0954757 0.515984
0.863554 0.0803693 0.496269
1 0.0699321 0.48101
0 0.446067 0.490379
0.125231 0.432059 0.476371
0.452476 0.420523 0.464836
0.825757 0.40972 0.416312
1 0.404929 0.449256
0 0.764965 0.452979
0.112902 0.754376 0.447395
0.431937 0.746258 0.444297
0.777523 0.74052 0.443626
1 0.737133 0.445304
0 1 0.444114
0.129152 1 0.446632
0.439002 1 0.451362
0.775067 1 0.458244
1 1 0.46717
0 0 1
0.312581 0 1
0.618296 0 1
0.958343 0 0.958724
1 0 0.9187
0 0.13576 0.941939
0.166842 0.108721 0.90721
0.496422 0.0897993 0.879515
0.856382 0.0764477 0.856748
1 0.0672465 0.837797
0 0.440864 0.849454
0.122683 0.427848 0.831525
0.449104 0.417151 0.8159
0.802213 0.408789 0.802594
1 0.403143 0.791943
0 0.761181 0.798566
0.11339 0.751446 0.788815
0.43154 0.744137 0.781506
0.776211 0.739208 0.776593
1 0.737774 0.751461
0 1 0.77525
0.132052 1 0.773449
0.440925 1 0.773846
0.775967 1 0.776349
1 1 0.78088
0 0 1
0.293675 0 1
0.599985 0 1
0.942626 0 1
1 0 1
0 0.124849 1
0.159777 0.101656 1
0.489845 0.0848096 1
0.849683 0.0730755 1
1 0.0648356 1
0 0.436164 1
0.120409 0.423911 1
0.44596 0.414023 1
0.798413 0.406699 1
1 0.401892 1
0 0.757687 1
0.113985 0.748623 1
0.431296 0.742184 1
0.775097 0.738094 1
1 0.736294 1
0 1 1
0.1355 1 1
0.443366 1 1
0.777386 1 1
1 1 1
