app/src/main/assets/lut_presets/复古深棕.cube
TITLE "Generated by Resolve"
LUT_3D_SIZE 9
0.0454719 0 0
0.207858 0 0
0.371908 0 0
0.52665 0 0
0.675013 0 0
0.83537 0 0
1 0 0
1 0 0
1 0 0
0 0.0474708 0
0.113817 0.0195315 0
0.299886 0 0
0.449409 0 0
0.583078 0 0
0.746197 0 0
0.929686 0 0
1 0 0
1 0 0
0 0.182513 0
0.0276951 0.157595 0
0.194583 0.136461 0
0.364034 0.120104 0
0.520195 0.109102 0
0.691707 0.0989395 0
0.879576 0.090074 0
1 0.0828412 0
1 0.0766308 0
0 0.324239 0
0 0.312016 0
0.153552 0.301137 0
0.322942 0.29192 0
0.483864 0.283742 0
0.655802 0.276967 0
0.843381 0.270878 0
1 0.265812 0
1 0.261006 0
0 0.457786 0
0 0.448905 0
0.131136 0.441291 0
0.300008 0.434287 0
0.460136 0.428183 0
0.630121 0.422354 0
0.815854 0.41738 0
0.999649 0.412818 0
1 0.409125 0
0 0.604791 0
0 0.597406 0
0.118593 0.590814 0
0.285374 0.584588 0
0.443381 0.579263 0
0.611322 0.574319 0
0.795026 0.570275 0
0.976745 0.566583 0
1 0.563775 0
0 0.773648 0
0 0.767254 0
0.113115 0.761364 0
0.278141 0.756268 0
0.433829 0.751568 0
0.599924 0.747707 0
0.781216 0.744213 0
0.9608 0.741405 0
1 0.739254 0
0 0.941344 0
0 0.935851 0
0.114855 0.930709 0
0.277775 0.926421 0
0.431266 0.922469 0
0.595132 0.919341 0
0.774121 0.916548 0
0.951553 0.914549 0
1 0.912871 0
0 1 0
0 1 0
0.123659 1 0
0.284169 1 0
0.435508 1 0
0.596826 1 0
0.773404 1 0
0.948379 1 0
1 1 0
0.0361334 0 0.16054
0.198444 0 0.132753
0.360891 0 0.104936
0.516869 0 0.0767529
0.665187 0 0.0488441
0.825879 0 0.0221866
1 0 0
1 0 0
1 0 0
0 0.0379644 0.0665751
0.104646 0.0103456 0.0389563
0.293904 0 0
0.451926 0 0
0.574395 0 0
0.738705 0 0
0.923888 0 0
1 0 0
1 0 0
0 0.173907 0
0.0202182 0.149905 0
0.188479 0.130358 0
0.383841 0.11133 0
0.532677 0.102342 0
0.687343 0.0956893 0
0.875441 0.0875105 0
1 0.0805829 0
1 0.0748608 0
0 0.319905 0
0 0.308202 0
0.150607 0.297826 0
0.320089 0.289067 0
0.484794 0.280629 0
0.652918 0.274907 0
0.840345 0.269093 0
1 0.26421 0
1 0.259602 0
0 0.454551 0
0 0.446189 0
0.12932 0.438666 0
0.298299 0.432166 0
0.457938 0.425986 0
0.627955 0.420615 0
0.813245 0.41561 0
0.99707 0.411505 0
1 0.407813 0
0 0.602304 0
0 0.595102 0
0.117754 0.588708 0
0.284337 0.582712 0
0.442145 0.5776 0
0.609888 0.572885 0
0.793378 0.569039 0
0.974868 0.56556 0
1 0.562966 0
0 0.77142 0
0 0.765057 0
0.113024 0.759564 0
0.277577 0.754452 0
0.433326 0.750195 0
0.598932 0.746303 0
0.780255 0.743252 0
0.959518 0.740551 0
1 0.738689 0
0 0.939406 0
0 0.934051 0
0.11548 0.929198 0
0.278157 0.925078 0
0.431434 0.92134 0
0.595071 0.91841 0
0.773831 0.915816 0
0.951003 0.914015 0
1 0.912505 0
0 1 0
0 1 0
0.124834 1 0
0.285237 1 0
0.436149 1 0
0.597391 1 0
0.773724 1 0
0.948455 1 0
1 1 0
0.0268254 0 0.387991
0.189044 0 0.359884
0.351125 0 0.331456
0.507118 0 0.303029
0.655543 0 0.275013
0.816434 0 0.248325
0.994308 0 0.222187
1 0 0.197177
1 0 0.17583
0 0.0284886 0.292744
0.0956741 0.00137331 0.265248
0.258473 0 0.238804
0.415625 0 0.21297
0.566278 0 0.188891
0.731746 0 0.169192
0.918212 0 0.15555
1 0 0.144152
1 0 0.134493
0 0.165438 0.203876
0.0133516 0.142809 0.181262
0.183459 0.125338 0.163775
0.380285 0.108125 0.110582
0.539117 0.0978714 0.100328
0.683192 0.0926833 0.131121
0.871397 0.0850385 0.123476
1 0.0784466 0.116899
1 0.0732128 0.11165
0 0.315801 0.147112
0 0.304585 0.13698
0.14789 0.294713 0.128206
0.317403 0.286381 0.121035
0.505989 0.27483 0.0749371
0.665217 0.270665 0.0851606
0.837369 0.267384 0.105669
1 0.262516 0.102037
1 0.258259 0.0990005
0 0.451575 0.118547
0 0.443641 0.113024
0.127871 0.436377 0.108186
0.296651 0.430091 0.104372
0.456046 0.424094 0.100816
0.629206 0.418479 0.0926528
0.810941 0.414145 0.0957961
0.994553 0.410269 0.0944228
1 0.406775 0.0934005
0 0.59971 0.102937
0 0.592874 0.099794
0.116854 0.586557 0.0971695
0.283375 0.580911 0.0952468
0.440726 0.575769 0.0938125
0.608515 0.571511 0.0933242
0.791547 0.56762 0.0931716
0.973068 0.564614 0.0939498
1 0.561975 0.0950637
0 0.769284 0.0947738
0 0.763134 0.0935836
0.112993 0.757839 0.0933242
0.277348 0.752941 0.0934005
0.432868 0.748898 0.0944076
0.59826 0.745205 0.0957351
0.779355 0.742367 0.0979629
0.958404 0.739864 0.100496
1 0.738186 0.103914
0 0.937545 0.0937209
0 0.932219 0.094667
0.116182 0.927733 0.0964981
0.278355 0.923598 0.0986648
0.431678 0.920287 0.101701
0.594797 0.917311 0.105028
0.773587 0.915145 0.109239
0.950271 0.913283 0.113695
1 0.912215 0.119005
0 1 0.099733
0 1 0.102983
0.126207 1 0.106523
0.286336 1 0.110903
0.437049 1 0.115602
0.598032 1 0.121111
0.774121 1 0.126833
0.948577 1 0.133394
1 1 0.140139
0.0175174 0 0.602564
0.179675 0 0.574105
0.341466 0 0.545159
0.497383 0 0.516442
0.646128 0 0.488502
0.80708 0 0.461601
0.985046 0 0.435294
1 0 0.410605
1 0 0.390082
0 0.0190127 0.506035
0.0867628 0 0.478645
0.249546 0 0.451881
0.406973 0 0.426032
0.558679 0 0.402701
0.725719 0 0.384268
0.912673 0 0.37055
1 0 0.358785
1 0 0.348318
0 0.157153 0.416953
0.00688182 0.13611 0.39527
0.179034 0.120912 0.379171
0.347097 0.108919 0.366155
0.507668 0.0987869 0.35494
0.679286 0.0899367 0.344976
0.867506 0.0827344 0.336614
1 0.0765393 0.329229
1 0.0716259 0.323095
0 0.311818 0.361883
0 0.300969 0.351034
0.145342 0.291768 0.341833
0.314641 0.283619 0.3337
0.50367 0.272923 0.283726
0.671626 0.267796 0.278599
0.834455 0.265736 0.315801
1 0.260929 0.311009
1 0.256992 0.307057
0 0.448768 0.331121
0 0.441123 0.324697
0.126513 0.434195 0.318975
0.295048 0.428077 0.314107
0.454231 0.422278 0.309529
0.648096 0.414374 0.263371
0.82092 0.411749 0.276509
0.991974 0.408927 0.299886
1 0.405814 0.298039
0 0.597284 0.31223
0 0.590707 0.308125
0.116045 0.584497 0.304372
0.282506 0.579187 0.301549
0.439643 0.574258 0.299107
0.607217 0.570214 0.297566
0.792676 0.566339 0.290578
0.971328 0.563745 0.296117
1 0.561288 0.296178
0 0.767025 0.300496
0 0.761273 0.298497
0.112902 0.756054 0.297032
0.277195 0.751507 0.296239
0.432395 0.74757 0.296086
0.597665 0.744183 0.296468
0.778286 0.741283 0.297353
0.957336 0.739239 0.299123
1 0.737499 0.301167
0 0.93576 0.296178
0 0.930648 0.296071
0.11696 0.92636 0.296849
0.278904 0.922423 0.297948
0.431983 0.919295 0.299931
0.594873 0.916518 0.30219
0.773419 0.914534 0.305318
0.949859 0.912871 0.30869
1 0.911986 0.312917
0 1 0.298634
0 1 0.300526
0.127642 1 0.303288
0.287297 1 0.30634
0.437995 1 0.310201
0.598459 1 0.314305
0.774563 1 0.319249
0.948501 1 0.324407
1 1 0.330358
0.00823987 0 0.764263
0.170077 0 0.735271
0.331807 0 0.70602
0.487663 0 0.676982
0.63679 0 0.649149
0.797711 0 0.621942
0.975891 0 0.595575
1 0 0.571618
1 0 0.552178
0 0.00985733 0.666728
0.0779278 0 0.639216
0.240772 0 0.612207
0.398489 0 0.586297
0.551492 0 0.563851
0.720287 0 0.546715
0.907469 0 0.532631
1 0 0.520302
1 0 0.509194
0 0.149447 0.577585
0.00109865 0.130068 0.556771
0.174578 0.116457 0.541238
0.343099 0.105272 0.527962
0.503624 0.0954757 0.515984
0.675563 0.0873884 0.505623
0.863554 0.0803693 0.496269
1 0.0747845 0.488273
1 0.0699321 0.48101
0 0.308019 0.523507
0 0.297658 0.512032
0.142885 0.288914 0.502159
0.31223 0.281209 0.493263
0.473289 0.2748 0.485649
0.644556 0.269017 0.478645
0.831601 0.264134 0.472526
1 0.259541 0.466697
1 0.255802 0.461723
0 0.446067 0.490379
0 0.43856 0.482872
0.125231 0.432059 0.476371
0.293263 0.425895 0.470207
0.452476 0.420523 0.464836
0.645777 0.412482 0.419074
0.825757 0.40972 0.416312
0.989517 0.407752 0.452064
1 0.404929 0.449256
0 0.594995 0.468208
0 0.58854 0.462989
0.115434 0.58262 0.458305
0.281682 0.577508 0.454444
0.438621 0.572824 0.450996
0.605997 0.568994 0.448417
0.80737 0.563973 0.406317
0.977646 0.562997 0.420722
1 0.560693 0.443885
0 0.764965 0.452979
0 0.759472 0.450004
0.112902 0.754376 0.447395
0.277119 0.750134 0.44567
0.431937 0.746258 0.444297
0.597147 0.743221 0.443793
0.777523 0.74052 0.443626
0.958022 0.73872 0.43888
1 0.737133 0.445304
0 0.933837 0.444999
0 0.929122 0.444068
0.117617 0.924895 0.443626
0.279515 0.921294 0.443839
0.432258 0.918273 0.444617
0.59501 0.915785 0.44593
0.773251 0.913939 0.447898
0.949508 0.912505 0.450263
1 0.911559 0.453101
0 1 0.444114
0 1 0.444953
0.129152 1 0.446632
0.288533 1 0.448585
0.439002 1 0.451362
0.599222 1 0.454398
0.775067 1 0.458244
0.948745 1 0.462303
1 1 0.46717
0 0 0.932448
0.160464 0 0.902907
0.322179 0 0.873396
0.478202 0 0.844266
0.627497 0 0.816297
0.788449 0 0.78883
0.966873 0 0.762402
1 0 0.739208
1 0 0.721035
0 0.000885023 0.834043
0.0691691 0 0.806271
0.232181 0 0.77911
0.390616 0 0.753506
0.544839 0 0.731777
0.714855 0 0.715236
0.902373 0 0.700832
1 0 0.687816
1 0 0.676188
0 0.142443 0.74519
0 0.125093 0.725414
0.170596 0.112474 0.709804
0.339284 0.101823 0.695964
0.499916 0.0925307 0.68336
0.671916 0.0849165 0.672297
0.859922 0.0783551 0.662196
1 0.0731365 0.653346
1 0.0685435 0.645106
0 0.304295 0.691203
0 0.29456 0.67921
0.140475 0.286122 0.668452
0.309926 0.278904 0.658869
0.470649 0.272587 0.650126
0.641993 0.267308 0.642374
0.828595 0.262333 0.634974
1 0.258198 0.628367
1 0.254444 0.622141
0 0.443503 0.655695
0 0.436271 0.647242
0.123995 0.429999 0.639735
0.291798 0.424002 0.632517
0.450797 0.418845 0.626123
0.619745 0.414084 0.620127
0.804471 0.410208 0.615015
0.987228 0.406729 0.610285
1 0.404135 0.606439
0 0.592767 0.630152
0 0.586343 0.623743
0.114916 0.580819 0.618204
0.28069 0.575692 0.613077
0.43769 0.57145 0.608835
0.604593 0.567575 0.604974
0.80557 0.5626 0.567529
0.980041 0.561624 0.566537
1 0.560159 0.597543
0 0.763043 0.61149
0 0.757763 0.607477
0.113115 0.752865 0.603815
0.277073 0.748806 0.601022
0.431693 0.745159 0.598627
0.596689 0.742336 0.59707
0.776837 0.739834 0.595834
0.96698 0.738125 0.562005
1 0.738003 0.575448
0 0.932143 0.599954
0 0.927672 0.598016
0.11841 0.923552 0.596399
0.280186 0.920256 0.595651
0.432532 0.917281 0.595193
0.595209 0.915129 0.59559
0.773007 0.913268 0.596262
0.949203 0.912215 0.597772
1 0.911757 0.594995
0 1 0.595544
0 1 0.5953
0.130526 1 0.595728
0.28986 1 0.59678
0.439948 1 0.598352
0.600031 1 0.600412
0.775555 1 0.603098
0.94905 1 0.606134
1 1 0.609873
0 0 1
0.150912 0 1
0.312581 0 1
0.46894 0 1
0.618296 0 1
0.779355 0 0.984909
0.958343 0 0.958724
1 0 0.936172
1 0 0.9187
0 0 1
0.0603952 0 1
0.223697 0 0.975128
0.383276 0 0.950134
0.539162 0 0.929412
0.709758 0 0.912764
0.897444 0 0.897826
1 0 0.884092
1 0 0.871839
0 0.13576 0.941939
0 0.120638 0.923217
0.166842 0.108721 0.90721
0.335698 0.0986191 0.89279
0.496422 0.0897993 0.879515
0.668421 0.0826276 0.867674
0.856382 0.0764477 0.856748
1 0.0714122 0.84686
1 0.0672465 0.837797
0 0.300786 0.887709
0 0.291615 0.875105
0.138262 0.283497 0.863493
0.307774 0.276753 0.853132
0.46836 0.27071 0.843442
0.639506 0.26566 0.834684
0.825864 0.260868 0.826246
1 0.256931 0.818601
1 0.253391 0.811353
0 0.440864 0.849454
0 0.434089 0.840208
0.122683 0.427848 0.831525
0.29041 0.422187 0.823407
0.449104 0.417151 0.8159
0.617929 0.412695 0.808972
0.802213 0.408789 0.802594
0.985 0.405783 0.79707
1 0.403143 0.791943
0 0.5906 0.820661
0 0.584405 0.813245
0.114458 0.57911 0.806683
0.280034 0.574182 0.800534
0.43682 0.570153 0.795239
0.603494 0.566491 0.790341
0.785916 0.563714 0.786282
0.966293 0.561273 0.782589
1 0.559701 0.779751
0 0.761181 0.798566
0 0.755886 0.793256
0.11339 0.751446 0.788815
0.276905 0.747387 0.784756
0.43154 0.744137 0.781506
0.596033 0.741253 0.778622
0.776211 0.739208 0.776593
0.965209 0.736767 0.749996
1 0.737774 0.751461
0 0.930571 0.78352
0 0.926299 0.780514
0.119387 0.922362 0.777844
0.280934 0.919264 0.776013
0.433036 0.916487 0.774502
0.595483 0.914519 0.7738
0.773022 0.912856 0.773404
0.948974 0.911986 0.773816
1 0.911528 0.772335
0 1 0.77525
0 1 0.774197
0.132052 1 0.773449
0.291234 1 0.77351
0.440925 1 0.773846
0.600916 1 0.774975
0.775967 1 0.776349
0.949401 1 0.7785
1 1 0.78088
0 0 1
0.14139 0 1
0.302983 0 1
0.459739 0 1
0.609064 0 1
0.770382 0 1
0.950301 0 1
1 0 1
1 0 1
0 0 1
0.0517891 0 1
0.215412 0 1
0.376318 0 1
0.534081 0 1
0.704936 0 1
0.892729 0 1
1 0 1
1 0 1
0 0.129763 1
0 0.116243 1
0.16321 0.105089 1
0.332036 0.0953231 1
0.49308 0.0872511 1
0.664881 0.0802777 1
0.852979 0.0747082 1
1 0.0698558 1
1 0.0660105 1
0 0.29749 1
0 0.288716 1
0.136263 0.281086 1
0.305715 0.274693 1
0.466163 0.26894 1
0.637079 0.264057 1
0.823209 0.259464 1
1 0.255756 1
1 0.252415 0.999939
0 0.438437 1
0 0.431968 1
0.121447 0.425803 1
0.289097 0.420447 1
0.447425 0.415473 1
0.616205 0.411399 0.997192
0.800275 0.407706 0.989776
0.982849 0.404913 0.98323
1 0.402472 0.97705
0 0.588312 1
0 0.582544 1
0.113909 0.577295 0.994385
0.279454 0.572763 0.98735
0.43592 0.568826 0.980926
0.602487 0.565484 0.975067
0.784619 0.562844 0.969909
0.964843 0.560678 0.965225
1 0.55903 0.961059
0 0.759396 0.984985
0 0.754314 0.978653
0.113741 0.750072 0.973159
0.277012 0.746212 0.968032
0.431449 0.743175 0.963745
0.595712 0.740505 0.959808
0.775647 0.738659 0.956695
0.953521 0.737133 0.953902
1 0.736416 0.951919
0 0.929046 0.96643
0 0.924743 0.962112
0.120424 0.921248 0.958633
0.281468 0.918105 0.955489
0.4336 0.915755 0.95314
0.595605 0.913787 0.951171
0.773114 0.912505 0.949874
0.948562 0.911559 0.948943
1 0.911406 0.948714
0 1 0.954574
0 1 0.952453
0.133745 1 0.950622
0.292683 1 0.949584
0.442115 1 0.948837
0.601862 1 0.948867
0.776654 1 0.949157
0.949828 1 0.95021
1 1 0.951476
0 0 1
0.131884 0 1
0.293675 0 1
0.450614 0 1
0.599985 0 1
0.761547 0 1
0.942626 0 1
1 0 1
1 0 1
0 0 1
0.0433661 0 1
0.207706 0 1
0.369985 0 1
0.528954 0 1
0.700206 0 1
0.887953 0 1
1 0 1
1 0 1
0 0.124849 1
0 0.112276 1
0.159777 0.101656 1
0.328725 0.0923781 1
0.489845 0.0848096 1
0.661646 0.0782635 1
0.849683 0.0730755 1
1 0.0684825 1
1 0.0648356 1
0 0.294392 1
0 0.285878 1
0.134371 0.278798 1
0.303502 0.272496 1
0.464042 0.267231 1
0.634485 0.262272 1
0.820615 0.258152 1
1 0.254383 1
1 0.25153 1
0 0.436164 1
0 0.429892 1
0.120409 0.423911 1
0.2878 0.418738 1
0.44596 0.414023 1
0.614557 0.410163 1
0.798413 0.406699 1
0.980774 0.404105 1
1 0.401892 1
0 0.586252 1
0 0.580743 1
0.113497 0.575631 1
0.27895 0.571389 1
0.435035 0.567529 1
0.601556 0.564553 1
0.783261 0.561913 1
0.963439 0.560143 1
1 0.558709 1
0 0.757687 1
0 0.752804 1
0.113985 0.748623 1
0.277211 0.745113 1
0.431296 0.742184 1
0.595453 0.739818 1
0.775097 0.738094 1
0.952789 0.736828 1
1 0.736294 1
0 0.927611 1
0 0.923491 1
0.121538 0.920211 1
0.282338 0.91725 1
0.434241 0.915099 1
0.595926 0.913252 1
0.773251 0.912215 1
0.94844 0.911452 1
1 0.911467 1
0 1 1
0 1 1
0.1355 1 1
0.293889 1 1
0.443366 1 1
0.602625 1 1
0.777386 1 1
0.950134 1 1
1 1 1
